site_internet/img/legend/ete-vert.svg

<?xml version="1.0" encoding="UTF-8" standalone="no"?>
<svg
   xmlns:dc="http://purl.org/dc/elements/1.1/"
   xmlns:cc="http://creativecommons.org/ns#"
   xmlns:rdf="http://www.w3.org/1999/02/22-rdf-syntax-ns#"
   xmlns:svg="http://www.w3.org/2000/svg"
   xmlns="http://www.w3.org/2000/svg"
   xmlns:sodipodi="http://sodipodi.sourceforge.net/DTD/sodipodi-0.dtd"
   xmlns:inkscape="http://www.inkscape.org/namespaces/inkscape"
   version="1.0"
   width="13.713449pt"
   height="20.569788pt"
   viewBox="0 0 13.713449 20.569788"
   preserveAspectRatio="xMidYMid meet"
   id="svg6"
   sodipodi:docname="ete-vert.svg"
   inkscape:version="1.0.1 (3bc2e813f5, 2020-09-07)">
  <metadata
     id="metadata12">
    <rdf:RDF>
      <cc:Work
         rdf:about="">
        <dc:format>image/svg+xml</dc:format>
        <dc:type
           rdf:resource="http://purl.org/dc/dcmitype/StillImage" />
        <dc:title></dc:title>
      </cc:Work>
    </rdf:RDF>
  </metadata>
  <defs
     id="defs10" />
  <sodipodi:namedview
     pagecolor="#ffffff"
     bordercolor="#666666"
     borderopacity="1"
     objecttolerance="10"
     gridtolerance="10"
     guidetolerance="10"
     inkscape:pageopacity="0"
     inkscape:pageshadow="2"
     inkscape:window-width="1920"
     inkscape:window-height="1017"
     id="namedview8"
     showgrid="true"
     inkscape:zoom="15.272339"
     inkscape:cx="2.978597"
     inkscape:cy="20.479785"
     inkscape:window-x="3592"
     inkscape:window-y="-8"
     inkscape:window-maximized="1"
     inkscape:current-layer="svg6"
     fit-margin-top="0"
     fit-margin-left="0"
     fit-margin-right="0"
     fit-margin-bottom="0"
     inkscape:document-rotation="0">
    <inkscape:grid
       type="xygrid"
       id="grid14"
       originx="-3.6862644"
       originy="-4.0058447" />
  </sodipodi:namedview>
  <g
     id="g6553"
     transform="translate(0.09309236,0.32582325)" />
  <g
     id="g6562"
     clip-path="none"
     style="fill:#439147;fill-opacity:1">
    <g
       transform="matrix(0.002,0,0,-0.002,-4.8822641,22.416155)"
       fill="#FFFFFF"
       stroke="none"
       id="g4"
       style="fill:#439147;fill-opacity:1">
      <path
         id="path2"
         clip-path="none"
         style="fill:#439147;fill-opacity:1;stroke-width:0.00266667"
         d="M 9.4628906 0.00390625 C 9.1326042 -0.0058124995 8.7960781 0.00043750121 8.4550781 0.0234375 C 6.5990782 0.14610416 4.9325624 0.79436474 3.4765625 1.9570312 C 3.1005625 2.2556979 2.2629844 3.0959427 1.9589844 3.4746094 C 1.0869844 4.5706093 0.51527601 5.7474948 0.22460938 7.0488281 C -0.12205728 8.5954947 -0.061619778 10.483635 0.37304688 11.792969 C 0.44771352 12.011635 1.0237084 13.258698 2.234375 15.832031 C 3.202375 17.880031 4.7054115 21.071734 5.5800781 22.927734 C 6.5240781 24.930401 7.2209688 26.373089 7.2929688 26.482422 C 7.7463019 27.146422 8.653125 27.533724 9.453125 27.400391 C 9.8024583 27.344391 10.064125 27.253036 10.328125 27.095703 C 10.602792 26.933036 10.941938 26.600802 11.085938 26.355469 C 11.267269 26.043469 17.757141 12.21701 17.869141 11.902344 C 18.290474 10.72101 18.402297 9.0348749 18.154297 7.546875 C 17.83963 5.6402084 16.962948 4.0064062 15.488281 2.5664062 C 13.817615 0.94007309 11.774896 0.071937496 9.4628906 0.00390625 z M 9.1796875 4.9902344 A 3.4344309 3.4964925 0 0 1 12.613281 8.4863281 A 3.4344309 3.4964925 0 0 1 9.1796875 11.982422 A 3.4344309 3.4964925 0 0 1 5.7441406 8.4863281 A 3.4344309 3.4964925 0 0 1 9.1796875 4.9902344 z "
         transform="matrix(375.00001,0,0,-375.00001,2441.1321,11208.077)" />
    </g>
  </g>
</svg>

<svg width="13.713pt" height="20.57pt" version="1.0" viewBox="0 0 13.713 20.57" xmlns="http://www.w3.org/2000/svg">
 <g >
  <g transform="matrix(.002 0 0 -.002 -4.8823 22.416)" fill="#439147">
   <path transform="matrix(375 0 0 -375 2441.1 11208)" d="m9.4629 0.0039062c-0.33029-0.0097187-0.66681-0.0034687-1.0078 0.019531-1.856 0.12267-3.5225 0.77093-4.9785 1.9336-0.376 0.29867-1.2136 1.1389-1.5176 1.5176-0.872 1.096-1.4437 2.2729-1.7344 3.5742-0.34667 1.5467-0.28623 3.4348 0.14844 4.7441 0.074667 0.21867 0.65066 1.4657 1.8613 4.0391 0.968 2.048 2.471 5.2397 3.3457 7.0957 0.944 2.0027 1.6409 3.4454 1.7129 3.5547 0.45333 0.664 1.3602 1.0513 2.1602 0.91797 0.34933-0.056 0.611-0.14736 0.875-0.30469 0.27467-0.16267 0.61381-0.4949 0.75781-0.74023 0.18133-0.312 6.6712-14.138 6.7832-14.453 0.42133-1.1813 0.53316-2.8675 0.28516-4.3555-0.31467-1.9067-1.1913-3.5405-2.666-4.9805-1.6707-1.6263-3.7134-2.4945-6.0254-2.5625zm-0.2832 4.9863a3.4344 3.4965 0 0 1 3.4336 3.4961 3.4344 3.4965 0 0 1-3.4336 3.4961 3.4344 3.4965 0 0 1-3.4355-3.4961 3.4344 3.4965 0 0 1 3.4355-3.4961z" stroke-width=".0026667"/>
  </g>
 </g>
</svg>
